X: 1
T: Uist Tramping Song
R: march
Z: 2005 John Chambers <jc:trillian.mit.edu>
M: C|
L: 1/4
K: D
"A7"AB \
| "D"d2 AB | "D"d2 df | "D"a>a af | "D"aa fe \
| "D"d2 df | "Bm"a2 fa | "G"b>b af | "A7"fe fa ||
||"G"b>b ba | "F#m"fe de | "Em"f>e dB | "A7"BA AB \
| "D"d2 "G"d2 | "Em"ba "A7"fe | "D"d2 "G"AB | "D"d2 |]
